X: 8
T: The Dairy Maid
R: reel
M: 4/4
L: 1/8
K: Dmaj
B|AF~F2 AFdF|AFDE FE~E2|AF~F2 DFAF|~E2DE FDD2|
AF~F2 dF~F2|AFDE FEED|~G3E FAAF|~E2DE FDD||
A|~d3f abag|fgef dBBA|dcdf afbf|afeg fdd2|
dfaf g2bg|affe dBBA|df~f2 afbf|afeg fdd||


Tune 1946	Setting 27600

